X: 30552
T: JACK OF NEWBURY
C:
%R: jig
B: Elias Howe "The Musician's Companion" Part 3 1844 p.55 #2
S: http://imslp.org/wiki/The_Musician's_Companion_(Howe,_Elias)
S: https://archive.org/stream/firstthirdpartof03howe/#page/66/mode/1up
Z: 2015 John Chambers <jc:trillian.mit.edu>
M: 6/8
L: 1/8
K: D
% - - - - - - - - - - - - - - - - - - - - - - - - -
A |\
d3 fdf | afa bag | afd fed | ecA A3 |\
d3 fdf | afa bag | afd efg | fdd d2 :|
|: D |\
FGA DAG | FGA DAG | FGA AB=c| Bcd cBA |\
FGA DAG | FGA DFA | def efg | fdd d2 :|
|: d |\
gag fgf | efe gab | afd agf | gee e3 |\
gag fgf | efe gab | afd efg | fdd d2 :|
% - - - - - - - - - - - - - - - - - - - - - - - - -
